X:1
T:Title
%%score { ( 1 3 ) | 2 }
L:1/8
M:3/4
K:Db
V:1 treble nm="Grand Piano"
V:3 treble 
V:2 bass 
V:1
 z2 z2[Q:1/4=100] [DF]>[EG] | [FA]3 [Fd] [Ac][GB] | [FA]2 [DF]2 [CE]>[DF] | [EG]3 [GB] [FA][EG] | %4
[M:2/4] [DF]4 |[M:1/4] [DF]>[EG] |[M:3/4] [FA]3 [Fd] [Ac][GB] | [FA]2 F2 D>E | %8
 F3 [B,DG] [A,DF][K:bass][G,CE] |[M:2/4] [F,D]4 |[M:1/4][K:treble] A>B |[M:3/4] [FA]4 z2 | %12
 [FA]4 z2 | [FA]4 z2 | [A,DF]4 A>B | [FA]4 z2 | [FA]4 z2 | [DF]4 z2[K:bass] |[M:2/4] [F,D]4 |] %19
V:2
 z2 z2 [D,A,]>[D,A,] | [D,D]3 [D,D] [D,D][D,D] | [D,D]2 [D,A,]2 [A,,A,]>[A,,A,] | %3
 [A,,A,]3 [A,,A,] [A,,A,][A,,A,] |[M:2/4] [D,A,]4 |[M:1/4] [D,A,]>[D,A,] | %6
[M:3/4] [D,D]3 [D,D] [D,D][D,D] | [D,D]2 [D,A,D]2 [D,F,]>[D,G,D] | [D,A,D]3 G,, A,,A,, | %9
[M:2/4] D,4 |[M:1/4][K:treble] F>G |[M:3/4][K:bass] D,D, D,[K:treble]D FG | %12
 D,D, D,[K:treble]D z G | A,,A,, A,,A,, A,,A,, | D,4[K:treble] F>G | D,D, D,[K:treble]D FG | %16
 D,D, D,D z D | A,,A,, A,,A,, A,,A,, |[M:2/4] D,4 |] %19
V:3
 x6 | x6 | x6 | x6 |[M:2/4] x4 |[M:1/4] x2 |[M:3/4] x6 | x6 | x5[K:bass] x |[M:2/4] x4 | %10
[M:1/4][K:treble] x2 |[M:3/4] DD DF dB | DD DF DB | A,A, A,[A,CE] [A,DF][A,EG] | x6 | DD DF dB | %16
 DD DF DE | A,A, A,[A,CG] [A,DF][K:bass][G,CE] |[M:2/4] x4 |] %19

